X: 468
T:Copperplate, The
M:4/4
L:1/8
C:Trad.
S:Sonja O'Brien
R:Reel
N:Posted to the woodenflute mailing list January 2002
Z:Posted to woodenflute by Kurt Kleiner, from TUNEdb
K:G
% TUNEdb Number 50
G2dG BGdG|G2dc BAGB|A2eA cAeA|A2ed cAFA|
G2dG BGdG|G2dc BAGB|1ABcd efge|aged c2BA:||
2ABcd efge|aged ^cdef||!
~g3f g2ef|gfed cBAG|eaag ageg|aged ^cdef|
~g3f g2ef|gfed cBAG|1ABcd efge|aged ^cdef:||
2ABcd efge|aged c2 BA||
<end>
<start>
